X:85
T: Road to Cullenstown
M: 4/4
L: 1/8
S: Patrick Street
R: reel
D: "Live from Patrick Street"
Z: "Barney" [via IRTRAD]
K: G
(3ABc |: d2 de dBGA | B2 BG AGEG | Bdde dBGA |\
BAAG A3 c |
Bd ~d2 e2 dB | d2 dB AGED | ~B3 G AGEG |1\
DGGF GABc :|2 DGGF G3 ||
A | Bd ~d2 ce ~e2 | d2 de dBGA | Bd ~d2 ed ~d2 |\
gedB A3 c |
BGBd e2 dB | d2 dB AGED | ~B3 G AGEG |1\
DGGF G2 c :|2 DGGF G3 ||
